icons/themes/default/id-front.svg

<svg width="25" height="24" viewBox="0 0 25 24" fill="none" xmlns="http://www.w3.org/2000/svg">
<path d="M8.75098 12C9.91594 12 11.0015 12.632 11.584 13.6494C11.7395 13.92 11.775 14.2458 11.6807 14.542C11.5863 14.8369 11.3706 15.0813 11.0889 15.2119C10.3133 15.5706 9.53218 15.75 8.75098 15.75C7.96978 15.75 7.18865 15.5706 6.41309 15.2119C6.13143 15.0812 5.91499 14.8368 5.82129 14.542C5.72694 14.2458 5.76239 13.9206 5.91797 13.6494C6.49982 12.632 7.58605 12.0001 8.75098 12Z" fill="currentColor"/>
<path d="M17.1309 12.8633C17.4271 12.9238 17.6504 13.1858 17.6504 13.5C17.6504 13.8142 17.4271 14.0762 17.1309 14.1367L17 14.1504H14C13.641 14.1504 13.3496 13.859 13.3496 13.5C13.3496 13.141 13.641 12.8496 14 12.8496H17L17.1309 12.8633Z" fill="currentColor"/>
<path d="M8.75 8.24414C9.61294 8.24414 10.3125 8.9437 10.3125 9.80664C10.3125 10.6696 9.61294 11.3691 8.75 11.3691C7.88714 11.369 7.1875 10.6695 7.1875 9.80664C7.1875 8.94375 7.88714 8.24424 8.75 8.24414Z" fill="currentColor"/>
<path d="M18.6201 9.86035C18.9172 9.91611 19.1442 10.1743 19.1494 10.4883C19.1545 10.8021 18.9365 11.0672 18.6416 11.1328L18.5107 11.1494L14.2275 11.2207C13.8687 11.2266 13.5724 10.94 13.5664 10.5811C13.5605 10.2222 13.8472 9.92591 14.2061 9.91992L18.4893 9.84863L18.6201 9.86035Z" fill="currentColor"/>
<path fill-rule="evenodd" clip-rule="evenodd" d="M19.0176 4.59961C20.7694 4.5998 22.1503 6.06345 22.1504 7.82129V16.1787C22.1503 17.9365 20.7694 19.4002 19.0176 19.4004H5.98242C4.23061 19.4002 2.84968 17.9365 2.84961 16.1787V7.82129C2.84968 6.06345 4.23061 4.5998 5.98242 4.59961H19.0176ZM5.98242 5.90039C4.99118 5.90058 4.15046 6.73806 4.15039 7.82129V16.1787C4.15046 17.2619 4.99118 18.0994 5.98242 18.0996H19.0176C20.0088 18.0994 20.8495 17.2619 20.8496 16.1787V7.82129C20.8495 6.73806 20.0088 5.90058 19.0176 5.90039H5.98242Z" fill="currentColor"/>
</svg>

<svg xmlns="http://www.w3.org/2000/svg" fill="none" viewBox="0 0 25 24">
  <path fill="currentColor" d="M8.751 12c1.165 0 2.25.632 2.833 1.65.155.27.191.596.097.892-.095.295-.31.54-.592.67-.776.359-1.557.538-2.338.538-.781 0-1.562-.18-2.338-.538a1.114 1.114 0 0 1-.592-.67 1.117 1.117 0 0 1 .097-.893A3.275 3.275 0 0 1 8.751 12ZM17.13 12.863a.65.65 0 0 1 0 1.274l-.13.013h-3a.65.65 0 0 1 0-1.3h3l.13.013ZM8.75 8.244a1.563 1.563 0 1 1 0 3.125 1.563 1.563 0 0 1 0-3.125ZM18.62 9.86a.65.65 0 0 1 .022 1.273l-.131.016-4.284.072a.65.65 0 0 1-.02-1.301l4.282-.071.131.011Z"/>
  <path fill="currentColor" fill-rule="evenodd" d="M19.018 4.6c1.751 0 3.132 1.463 3.132 3.221v8.358c0 1.758-1.38 3.221-3.132 3.221H5.982c-1.751 0-3.132-1.463-3.132-3.221V7.82C2.85 6.063 4.23 4.6 5.982 4.6h13.036ZM5.982 5.9c-.99 0-1.832.838-1.832 1.921v8.358c0 1.083.841 1.92 1.832 1.92h13.036c.99 0 1.831-.837 1.832-1.92V7.82c0-1.083-.841-1.92-1.832-1.92H5.982Z" clip-rule="evenodd"/>
</svg>
